app/assets/icons/ellipsis.svg

<svg height="4" viewBox="0 0 14 4" width="14" xmlns="http://www.w3.org/2000/svg">
  <path
    d="m8.75 2c0 .34612-.10264.68446-.29493.97225-.19229.28778-.4656.51209-.78537.64454s-.67164.16711-1.01111.09958c-.33946-.06752-.65128-.23419-.89603-.47893-.24474-.24474-.41141-.55657-.47893-.89603-.06753-.33947-.03287-.69134.09958-1.01111.13246-.31977.35676-.593079.64454-.785372.28779-.192292.62613-.294928.97225-.294928.46413 0 .90925.184375 1.23744.512563.32819.328187.51256.773307.51256 1.237437zm-6.75-1.75c-.34612 0-.68446.102636-.97225.294928-.287783.192293-.512085.465602-.644538.785372-.132454.31977-.16711.67164-.099585 1.01111.067524.33946.234195.65129.478937.89603.244746.24474.556566.41141.896026.47893.33947.06753.69134.03287 1.01111-.09958s.59308-.35676.78537-.64454c.1923-.28779.29493-.62613.29493-.97225 0-.46413-.18437-.90925-.51256-1.237437-.32819-.328188-.77331-.512563-1.23744-.512563zm10 0c-.3461 0-.6845.102636-.9722.294928-.2878.192293-.5121.465602-.6446.785372-.1324.31977-.1671.67164-.0996 1.01111.0676.33946.2342.65129.479.89603.2447.24474.5565.41141.896.47893.3395.06753.6913.03287 1.0111-.09958s.5931-.35676.7854-.64454c.1923-.28779.2949-.62613.2949-.97225 0-.22981-.0453-.45738-.1332-.6697-.088-.21232-.2169-.405234-.3794-.567737-.1625-.162502-.3554-.291407-.5677-.379352-.2123-.087946-.4399-.133211-.6697-.133211z"
    fill="currentColor" />
</svg>

<svg width="14" height="4" viewBox="0 0 14 4" fill="none" xmlns="http://www.w3.org/2000/svg">
  <path
    d="M8.75 2C8.75 2.34612 8.64736 2.68446 8.45507 2.97225C8.26278 3.26003 7.98947 3.48434 7.6697 3.61679C7.34993 3.74924 6.99806 3.7839 6.65859 3.71637C6.31913 3.64885 6.00731 3.48218 5.76256 3.23744C5.51782 2.9927 5.35115 2.68087 5.28363 2.34141C5.2161 2.00194 5.25076 1.65007 5.38321 1.3303C5.51567 1.01053 5.73997 0.737221 6.02775 0.544928C6.31554 0.352636 6.65388 0.25 7 0.25C7.46413 0.25 7.90925 0.434375 8.23744 0.762563C8.56563 1.09075 8.75 1.53587 8.75 2ZM2 0.25C1.65388 0.25 1.31554 0.352636 1.02775 0.544928C0.739967 0.737221 0.515665 1.01053 0.383212 1.3303C0.250758 1.65007 0.216102 2.00194 0.283627 2.34141C0.351151 2.68087 0.517822 2.9927 0.762564 3.23744C1.00731 3.48218 1.31913 3.64885 1.65859 3.71637C1.99806 3.7839 2.34993 3.74924 2.6697 3.61679C2.98947 3.48434 3.26278 3.26003 3.45507 2.97225C3.64737 2.68446 3.75 2.34612 3.75 2C3.75 1.53587 3.56563 1.09075 3.23744 0.762563C2.90925 0.434375 2.46413 0.25 2 0.25ZM12 0.25C11.6539 0.25 11.3155 0.352636 11.0278 0.544928C10.74 0.737221 10.5157 1.01053 10.3832 1.3303C10.2508 1.65007 10.2161 2.00194 10.2836 2.34141C10.3512 2.68087 10.5178 2.9927 10.7626 3.23744C11.0073 3.48218 11.3191 3.64885 11.6586 3.71637C11.9981 3.7839 12.3499 3.74924 12.6697 3.61679C12.9895 3.48434 13.2628 3.26003 13.4551 2.97225C13.6474 2.68446 13.75 2.34612 13.75 2C13.75 1.77019 13.7047 1.54262 13.6168 1.3303C13.5288 1.11798 13.3999 0.925066 13.2374 0.762563C13.0749 0.600061 12.882 0.471156 12.6697 0.383211C12.4574 0.295265 12.2298 0.25 12 0.25Z"
    fill="currentColor" />
</svg>
